img/footer-img-02.svg

<svg width="24" height="31" viewBox="0 0 24 31" fill="none" xmlns="http://www.w3.org/2000/svg">
<path d="M11.9999 18.2499C15.3089 18.2499 17.9999 15.5589 17.9999 12.2499C17.9999 8.94097 15.3089 6.25 11.9999 6.25C8.69097 6.25 6 8.94097 6 12.2499C6 15.5589 8.69097 18.2499 11.9999 18.2499ZM11.9999 9.24997C13.6544 9.24997 14.9999 10.5955 14.9999 12.2499C14.9999 13.9044 13.6544 15.2499 11.9999 15.2499C10.3455 15.2499 8.99997 13.9044 8.99997 12.2499C8.99997 10.5955 10.3455 9.24997 11.9999 9.24997Z" fill="#8EC2F2"/>
<path d="M11.13 29.9707C11.3839 30.152 11.688 30.2494 12 30.2494C12.312 30.2494 12.6161 30.152 12.87 29.9707C13.326 29.6482 24.0434 21.9098 23.9999 12.2499C23.9999 5.63344 18.6164 0.25 12 0.25C5.38357 0.25 0.000132055 5.63344 0.000132055 12.2424C-0.0433675 21.9098 10.674 29.6482 11.13 29.9707ZM12 3.24997C16.9634 3.24997 20.9999 7.28642 20.9999 12.2574C21.0314 18.9143 14.418 24.8917 12 26.8522C9.58353 24.8902 2.9686 18.9113 3.0001 12.2499C3.0001 7.28642 7.03655 3.24997 12 3.24997Z" fill="#8EC2F2"/>
</svg>

<svg width="24" height="31" fill="none" xmlns="http://www.w3.org/2000/svg"><path d="M12 18.25c3.309 0 6-2.691 6-6s-2.691-6-6-6-6 2.691-6 6 2.691 6 6 6Zm0-9c1.654 0 3 1.345 3 3 0 1.654-1.346 3-3 3-1.655 0-3-1.346-3-3 0-1.655 1.345-3 3-3Z" fill="#8EC2F2"/><path d="M11.13 29.97a1.497 1.497 0 0 0 1.74 0c.456-.322 11.173-8.06 11.13-17.72 0-6.617-5.384-12-12-12S0 5.633 0 12.242c-.043 9.668 10.674 17.406 11.13 17.729ZM12 3.25c4.963 0 9 4.036 9 9.007.031 6.657-6.582 12.635-9 14.595-2.416-1.962-9.031-7.94-9-14.602 0-4.964 4.037-9 9-9Z" fill="#8EC2F2"/></svg>
